static/assets/images/icons/bar-chart.svg

<svg width="256" height="256" viewBox="0 0 256 256" fill="none" xmlns="http://www.w3.org/2000/svg">
<path d="M222.431 219C228.268 219 233 214.266 233 208.426C233 202.586 228.268 197.852 222.431 197.852H212.935H166.581H150.689H104.335H89.3244H42.9705H33.5689C27.7319 197.852 23 202.586 23 208.426C23 214.266 27.7319 219 33.5689 219H222.431Z" fill="black"/>
<path d="M212.935 40.7292C212.935 38.6793 212.121 36.7134 210.672 35.2639C209.223 33.8143 207.258 33 205.209 33H174.307C172.258 33 170.293 33.8143 168.844 35.2639C167.395 36.7134 166.581 38.6793 166.581 40.7292V197.852H212.935V40.7292Z" fill="black"/>
<path d="M150.689 132.57C150.689 130.52 149.875 128.554 148.426 127.105C146.977 125.655 145.012 124.841 142.963 124.841H112.06C110.011 124.841 108.046 125.655 106.598 127.105C105.149 128.554 104.335 130.52 104.335 132.57V197.852H150.689V132.57Z" fill="black"/>
<path d="M89.3244 102.295C89.3244 100.245 88.5105 98.2792 87.0617 96.8297C85.6128 95.3802 83.6478 94.5659 81.5988 94.5659H50.6962C48.6472 94.5659 46.6821 95.3802 45.2333 96.8297C43.7845 98.2792 42.9705 100.245 42.9705 102.295V197.852H89.3244V102.295Z" fill="black"/>
</svg>

<svg xmlns="http://www.w3.org/2000/svg" fill="none" viewBox="0 0 256 256"><path fill="#000" d="M222.431 219c5.837 0 10.569-4.734 10.569-10.574s-4.732-10.574-10.569-10.574H33.569c-5.837 0-10.569 4.734-10.569 10.574S27.732 219 33.569 219z"/><path fill="#000" d="M212.935 40.73a7.73 7.73 0 0 0-7.726-7.73h-30.902a7.724 7.724 0 0 0-7.726 7.73v157.122h46.354zm-62.246 91.84a7.73 7.73 0 0 0-7.726-7.729H112.06a7.73 7.73 0 0 0-7.725 7.729v65.282h46.354zm-61.365-30.275a7.73 7.73 0 0 0-7.725-7.73H50.696a7.724 7.724 0 0 0-7.725 7.73v95.557h46.353z"/></svg>
